SVG_Azure_Grouped/Generic/License.svg

<?xml version="1.0" encoding="UTF-8" standalone="no"?>
<!-- Generated by Microsoft Visio, SVG Export License.svg Page-1 -->

<svg
   xmlns:dc="http://purl.org/dc/elements/1.1/"
   xmlns:cc="http://creativecommons.org/ns#"
   xmlns:rdf="http://www.w3.org/1999/02/22-rdf-syntax-ns#"
   xmlns:svg="http://www.w3.org/2000/svg"
   xmlns="http://www.w3.org/2000/svg"
   xmlns:sodipodi="http://sodipodi.sourceforge.net/DTD/sodipodi-0.dtd"
   xmlns:inkscape="http://www.inkscape.org/namespaces/inkscape"
   width="0.66967773in"
   height="0.78739446in"
   viewBox="0 0 48.216591 56.69255"
   xml:space="preserve"
   class="st6"
   version="1.1"
   id="svg55"
   sodipodi:docname="License.svg"
   style="font-size:12px;overflow:visible;color-interpolation-filters:sRGB;fill:none;fill-rule:evenodd;stroke-linecap:square;stroke-miterlimit:3"
   inkscape:version="0.92.5 (2060ec1f9f, 2020-04-08)"><metadata
   id="metadata59"><rdf:RDF><cc:Work
       rdf:about=""><dc:format>image/svg+xml</dc:format><dc:type
         rdf:resource="http://purl.org/dc/dcmitype/StillImage" /></cc:Work></rdf:RDF></metadata><sodipodi:namedview
   pagecolor="#ffffff"
   bordercolor="#666666"
   borderopacity="1"
   objecttolerance="10"
   gridtolerance="10"
   guidetolerance="10"
   inkscape:pageopacity="0"
   inkscape:pageshadow="2"
   inkscape:window-width="640"
   inkscape:window-height="480"
   id="namedview57"
   showgrid="false"
   inkscape:zoom="1.44337"
   inkscape:cx="32.141706"
   inkscape:cy="36.398974"
   inkscape:window-x="0"
   inkscape:window-y="0"
   inkscape:window-maximized="0"
   inkscape:current-layer="svg55" />
	<style
   type="text/css"
   id="style2">
	<![CDATA[
		.st1 {fill:url(#grad0-6);stroke:none;stroke-linecap:butt;stroke-width:31.9213}
		.st2 {fill:#ffffff;fill-opacity:0.8;stroke:none;stroke-linecap:butt;stroke-width:31.9213}
		.st3 {fill:url(#grad0-12);stroke:none;stroke-linecap:butt;stroke-width:31.9213}
		.st4 {fill:#dd5900;stroke:none;stroke-linecap:butt;stroke-width:14.9092}
		.st5 {fill:#fcd116;fill-opacity:0.9;stroke:none;stroke-linecap:butt;stroke-width:14.9092}
		.st6 {fill:none;fill-rule:evenodd;font-size:12px;overflow:visible;stroke-linecap:square;stroke-miterlimit:3}
	]]>
	</style>

	<defs
   id="Patterns_And_Gradients">
		<linearGradient
   id="grad0-6"
   x1="-0.019178401"
   y1="119.22841"
   x2="37.663557"
   y2="119.22841"
   gradientTransform="scale(1.2795494,0.78152512)"
   gradientUnits="userSpaceOnUse">
			<stop
   offset="0.22"
   stop-color="#32d4f5"
   stop-opacity="1"
   id="stop4" />
			<stop
   offset="1"
   stop-color="#198ab3"
   stop-opacity="1"
   id="stop6" />
		</linearGradient>
		<linearGradient
   id="grad0-12"
   x1="0"
   y1="95.035738"
   x2="27.108787"
   y2="95.035738"
   gradientTransform="scale(0.99603868,1.0039771)"
   gradientUnits="userSpaceOnUse">
			<stop
   offset="0.22"
   stop-color="#32d4f5"
   stop-opacity="1"
   id="stop9" />
			<stop
   offset="1"
   stop-color="#198ab3"
   stop-opacity="1"
   id="stop11" />
		</linearGradient>
	</defs>
	<g
   id="g53"
   transform="translate(-31.922043,-31.921753)">
		<title
   id="title15">Page-1</title>
		<g
   id="group16605-1"
   transform="translate(31.9462,-34.0157)">
			<title
   id="title17">License.16605</title>
			<g
   id="group16606-2"
   transform="translate(0,-3.21035)">
				<title
   id="title19">Icon-identity-230</title>
				<g
   id="shape16607-3">
					<title
   id="title21">path4</title>
					<path
   d="m 43.89,122.63 a 4.27423,4.30832 -180 0 0 4.28,-4.31 1.38544,1.39649 -180 0 0 0,-0.5 C 46.46,104.24 38.82,93.18 24.08,93.18 9.34,93.18 1.5,102.54 0,117.85 a 4.30371,4.33803 -180 0 0 3.86,4.78 z"
   class="st1"
   id="path23"
   inkscape:connector-curvature="0"
   style="fill:url(#grad0-6);stroke:none;stroke-width:31.92130089;stroke-linecap:butt" />
				</g>
				<g
   id="shape16608-7"
   transform="translate(16.7727,-9.32974)">
					<title
   id="title26">path6</title>
					<path
   d="M 7.31,105.72 A 13.5301,13.6381 0 0 1 0,103.55 l 7.31,19.08 7.19,-18.96 a 13.3533,13.4598 0 0 1 -7.19,2.05 z"
   class="st2"
   id="path28"
   inkscape:connector-curvature="0"
   style="fill:#ffffff;fill-opacity:0.8;stroke:none;stroke-width:31.92130089;stroke-linecap:butt" />
				</g>
				<g
   id="shape16609-9"
   transform="translate(10.6119,-26.2659)">
					<title
   id="title31">circle8</title>
					<ellipse
   cx="13.5007"
   cy="109.022"
   rx="13.5007"
   ry="13.6083"
   class="st3"
   id="ellipse33"
   style="fill:url(#grad0-12);stroke:none;stroke-width:31.92130089;stroke-linecap:butt" />
				</g>
			</g>
			<g
   id="shape16610-13"
   transform="translate(28.3362,-11.7182)">
				<title
   id="title37">circle8-7</title>
				<ellipse
   cx="6.6429501"
   cy="115.934"
   rx="6.6429501"
   ry="6.69593"
   class="st4"
   id="ellipse39"
   style="fill:#dd5900;stroke:none;stroke-width:14.90919971;stroke-linecap:butt" />
			</g>
			<g
   id="shape16611-15"
   transform="translate(29.9966,-13.3919)">
				<title
   id="title42">circle10</title>
				<ellipse
   cx="4.9825602"
   cy="117.608"
   rx="4.9825602"
   ry="5.0222998"
   class="st5"
   id="ellipse44"
   style="fill:#fcd116;fill-opacity:0.9;stroke:none;stroke-width:14.90919971;stroke-linecap:butt" />
			</g>
			<g
   id="shape16612-17"
   transform="translate(29.1719)">
				<title
   id="title47">path12</title>
				<path
   d="M 5.81,109.24 A 7.4346,7.49389 0 0 1 0.79,107.27 L 0,122.54 l 5.72,-5.77 5.82,5.86 0.08,-0.84 -0.79,-14.52 a 7.4346,7.49389 0 0 1 -5.02,1.97 z"
   class="st4"
   id="path49"
   inkscape:connector-curvature="0"
   style="fill:#dd5900;stroke:none;stroke-width:14.90919971;stroke-linecap:butt" />
			</g>
		</g>
	</g>
</svg>

<?xml version="1.0" encoding="UTF-8" standalone="no"?>
<!DOCTYPE svg PUBLIC "-//W3C//DTD SVG 1.1//EN" "http://www.w3.org/Graphics/SVG/1.1/DTD/svg11.dtd">
<!-- Generated by Microsoft Visio, SVG Export License.svg Page-1 -->
<svg xmlns="http://www.w3.org/2000/svg" xmlns:xlink="http://www.w3.org/1999/xlink" xmlns:ev="http://www.w3.org/2001/xml-events"
		width="1.55634in" height="1.70319in" viewBox="0 0 112.056 122.63" xml:space="preserve" color-interpolation-filters="sRGB"
		class="st6">
	<style type="text/css">
	<![CDATA[
		.st1 {fill:url(#grad0-6);stroke:none;stroke-linecap:butt;stroke-width:31.9213}
		.st2 {fill:#ffffff;fill-opacity:0.8;stroke:none;stroke-linecap:butt;stroke-width:31.9213}
		.st3 {fill:url(#grad0-12);stroke:none;stroke-linecap:butt;stroke-width:31.9213}
		.st4 {fill:#dd5900;stroke:none;stroke-linecap:butt;stroke-width:14.9092}
		.st5 {fill:#fcd116;fill-opacity:0.9;stroke:none;stroke-linecap:butt;stroke-width:14.9092}
		.st6 {fill:none;fill-rule:evenodd;font-size:12px;overflow:visible;stroke-linecap:square;stroke-miterlimit:3}
	]]>
	</style>

	<defs id="Patterns_And_Gradients">
		<linearGradient id="grad0-6" x1="0" y1="0" x2="1" y2="0" gradientTransform="rotate(90 0.5 0.5)">
			<stop offset="0.22" stop-color="#32d4f5" stop-opacity="1"/>
			<stop offset="1" stop-color="#198ab3" stop-opacity="1"/>
		</linearGradient>
		<linearGradient id="grad0-12" x1="0" y1="0" x2="1" y2="0" gradientTransform="rotate(85.405746668733 0.5 0.5)">
			<stop offset="0.22" stop-color="#32d4f5" stop-opacity="1"/>
			<stop offset="1" stop-color="#198ab3" stop-opacity="1"/>
		</linearGradient>
	</defs>
	<g>
		<title>Page-1</title>
		<g id="group16222-1" transform="translate(31.9462,-34.0157)">
			<title>License.16222</title>
			<g id="group16223-2" transform="translate(0,-3.21035)">
				<title>Icon-identity-230</title>
				<g id="shape16224-3">
					<title>path4</title>
					<path d="M43.89 122.63 A4.27423 4.30832 -180 0 0 48.17 118.32 A1.38544 1.39649 -180 0 0 48.17 117.82 C46.46 104.24
								 38.82 93.18 24.08 93.18 C9.34 93.18 1.5 102.54 0 117.85 A4.30371 4.33803 -180 0 0 3.86 122.63 L43.89
								 122.63 Z" class="st1"/>
				</g>
				<g id="shape16225-7" transform="translate(16.7727,-9.32974)">
					<title>path6</title>
					<path d="M7.31 105.72 A13.5301 13.6381 0 0 1 0 103.55 L7.31 122.63 L14.5 103.67 A13.3533 13.4598 0 0 1 7.31 105.72
								 Z" class="st2"/>
				</g>
				<g id="shape16226-9" transform="translate(10.6119,-26.2659)">
					<title>circle8</title>
					<ellipse cx="13.5007" cy="109.022" rx="13.5007" ry="13.6083" class="st3"/>
				</g>
			</g>
			<g id="shape16227-13" transform="translate(28.3362,-11.7182)">
				<title>circle8-7</title>
				<ellipse cx="6.64295" cy="115.934" rx="6.64295" ry="6.69593" class="st4"/>
			</g>
			<g id="shape16228-15" transform="translate(29.9966,-13.3919)">
				<title>circle10</title>
				<ellipse cx="4.98256" cy="117.608" rx="4.98256" ry="5.0223" class="st5"/>
			</g>
			<g id="shape16229-17" transform="translate(29.1719,-2.84217E-13)">
				<title>path12</title>
				<path d="M5.81 109.24 A7.4346 7.49389 0 0 1 0.79 107.27 L0 122.54 L5.72 116.77 L11.54 122.63 L11.62 121.79 L10.83
							 107.27 A7.4346 7.49389 0 0 1 5.81 109.24 L5.81 109.24 Z" class="st4"/>
			</g>
		</g>
	</g>
</svg>
